X:26
T:The Jolly Brig 'Brigitta'
C:Roy Watrous, 1986
S:The Watrous Book, 1992
M:2/4
L:1/16
Q:1/4=90
K:D
%%MIDI program 72
%%MIDI transpose 8
%%MIDI ratio 3 1
A2AB AGFG|AFfe d3c|B2Bc BAGA|BGgf e2fg|aAgA fAeA|
def2 A2A2|B2gf edce|d8::b2b2 a2fa|gfed cBAG|
FAdf gfed|cdef e4|b2b2 a2fa|gfed cBAG|FAdf gece|d8:|]

